.local/share/icons/Gruvbox-Plus-Dark/actions/symbolic/edit-clear-symbolic.svg

<svg width="16" height="16" version="1.1" xmlns="http://www.w3.org/2000/svg">
  <defs>
    <style id="current-color-scheme" type="text/css">.ColorScheme-Text { color:#ebdbb2; } .ColorScheme-Highlight { color:#458588; }</style>
  </defs>
  <path class="ColorScheme-Text" d="m5 2.004-5 6 5 6h11v-12h-11zm2 3h1c0.277 0 0.5263 0.1122 0.707 0.293l1.293 1.293 1.293-1.293c0.17-0.181 0.4192-0.293 0.6992-0.293h1v1c0 0.277-0.1122 0.5263-0.293 0.707l-1.299 1.293 1.293 1.293c0.1808 0.1808 0.293 0.43 0.293 0.707v1h-1c-0.277 0-0.5263-0.1122-0.707-0.293l-1.293-1.293-1.293 1.293c-0.16 0.181-0.4095 0.293-0.6895 0.293h-1v-1c0-0.277 0.1122-0.5263 0.293-0.707l1.299-1.293-1.299-1.293c-0.18-0.181-0.291-0.43-0.291-0.707l-0.005859-1z" fill="currentColor"/>
</svg>

<svg xmlns="http://www.w3.org/2000/svg" width="16" height="16" version="1.1">
 <path style="fill:#ebdbb2" d="M 5,2 0,8 5,14 H 16 V 2 Z M 7,5 H 8 C 8.28,5 8.53,5.11 8.71,5.29 L 10,6.59 11.29,5.29 C 11.47,5.11 11.72,5 12,5 H 13 V 6 C 13,6.28 12.89,6.53 12.71,6.71 L 11.41,8 12.71,9.29 C 12.89,9.47 13,9.72 13,10 V 11 H 12 C 11.72,11 11.47,10.89 11.29,10.71 L 10,9.41 8.71,10.71 C 8.53,10.89 8.28,11 8,11 H 7 V 10 C 7,9.72 7.11,9.47 7.29,9.29 L 8.59,8 7.29,6.71 C 7.11,6.53 7,6.28 7,6 Z"/>
</svg>
